static/assets/img/icons/theme/general/half-star.svg

<svg height="24" viewBox="0 0 24 24" width="24" xmlns="http://www.w3.org/2000/svg"><g fill="none" fill-rule="evenodd"><path d="m0 0h24v24h-24z" opacity="0"/><g fill="#000"><path d="m12 4.25932872c.1488635-.00011288.3000368.03314444.4425657.10348667.1972126.09733023.3568401.25695776.4541704.45417036l2.0421902 4.13792928 4.566476.66354781c.5465449.07941762.9252264.58686046.8458087 1.13340536-.0316245.217637-.1341117.4187794-.2915953.572288l-3.3043331 3.2209288.7800472 4.5480244c.093361.5443364-.2722268 1.0612923-.8165632 1.1546533-.2167577.0371769-.4397258.0018622-.6343862-.1004769l-4.0843804-2.1472858z" opacity=".3"/><path d="m12 4.25932872v13.74067128l-4.08438037 2.1472858c-.48884459.2570008-1.09347174.0690543-1.35047255-.4197903-.10233907-.1946604-.13765374-.4176285-.1004769-.6343861l.78004724-4.5480244-3.30433313-3.2209288c-.39548358-.3855012-.40357589-1.0186145-.01807467-1.41409803.1535086-.15748364.35465101-.25997082.57228804-.29159533l4.56647608-.66354781 2.04219016-4.13792928c.1740801-.35272475.5283348-.55737768.8967361-.55765703z"/></g></g></svg>

<svg width="24px" height="24px" viewBox="0 0 24 24" version="1.1" xmlns="http://www.w3.org/2000/svg" xmlns:xlink="http://www.w3.org/1999/xlink">
    <title>Icon For Half-star</title>
    <g stroke="none" stroke-width="1" fill="none" fill-rule="evenodd">
        <polygon points="0 0 24 0 24 24 0 24" opacity="0"></polygon>
        <path d="M12,4.25932872 C12.1488635,4.25921584 12.3000368,4.29247316 12.4425657,4.36281539 C12.6397783,4.46014562 12.7994058,4.61977315 12.8967361,4.81698575 L14.9389263,8.95491503 L19.5054023,9.61846284 C20.0519472,9.69788046 20.4306287,10.2053233 20.351211,10.7518682 C20.3195865,10.9695052 20.2170993,11.1706476 20.0596157,11.3241562 L16.7552826,14.545085 L17.5353298,19.0931094 C17.6286908,19.6374458 17.263103,20.1544017 16.7187666,20.2477627 C16.5020089,20.2849396 16.2790408,20.2496249 16.0843804,20.1472858 L12,18 L12,4.25932872 Z" fill="#000000" opacity="0.3"></path>
        <path d="M12,4.25932872 L12,18 L7.91561963,20.1472858 C7.42677504,20.4042866 6.82214789,20.2163401 6.56514708,19.7274955 C6.46280801,19.5328351 6.42749334,19.309867 6.46467018,19.0931094 L7.24471742,14.545085 L3.94038429,11.3241562 C3.54490071,10.938655 3.5368084,10.3055417 3.92230962,9.91005817 C4.07581822,9.75257453 4.27696063,9.65008735 4.49459766,9.61846284 L9.06107374,8.95491503 L11.1032639,4.81698575 C11.277344,4.464261 11.6315987,4.25960807 12,4.25932872 Z" fill="#000000"></path>
    </g>
</svg>
